X:1109
T:Pastheen Fuen,
C:Irish.
M:6/4
L:1/8
Q:1/4=104
I: :: ::
Z:Jack Campin * www.campin.me.uk * 2009
K:D Minor
A2|d3  f``ed ^c2A2de|f4  f2 e4  e2|d3  f``ed ^c2A2d2|^c2 A2  A2  A4  A2|
   d3  f``ed ^c2A2de|f4  f2 e4  d2|dc`BA``GF  G3 BAG| F2 D2  D2  D4   :|
DE|F2(FG)(FG) c2A2A2|B2G2G2 c2A2A2|F2(FA)(ce) f3 ed2| c2(AG)(FG) F2D2D2|
   F2 FG``FG  c2A2A2|B2G2G2 f4  ed|dc`BA``GF  GFGBAG| F2 D2  D2  D4   :|

